X: 1
T: Forde's Polka
C: trad
O: Ireland
%D:
R: polka
S: Fiddle Hell Online 2022-4-10 handout for Becky Tracy's workshop
Z: 2022 John Chambers <jc:trillian.mit.edu>
M: C|
L: 1/8
K: D
"^A"|: (F/G/ \
| "D"A)(D FA) | (dc) (GB) | "C"=c>B cG | "*A7"(ED) G(F/G/ |
| "D"A)(D FA) | (dc) (GB) | "C"=c>B cE | (ED) D :|
"^B"|: z/(e/ \
| "D"fd) (ed) | "A7"(cA) A>(e | "D"fd) (ef) | "A7"(ag) e>(g |
| "D"fd) (ed) | (cA) (AB) | "C"=c>B cE | "D"(ED) D :|
